X:077 
T:Humors of Whitegate (reel), The
F:file ID: cre.5/077hu_white
B:CRE5.124 (PlÃÂÃÂÃÂÃÂ©arÃÂÃÂÃÂÃÂ¡ca an Gheata BhÃÂÃÂÃÂÃÂ¡in)
M:4/4
Q:180
R:reel
K:D
A2FA DAFA|B2GB EBGB|A2FA DAFA|BAGE EDD2|
AD (3FED AD (3FED|BE ~E2 BE ~E2|A2FA DAFA|\
BAGE EDD2:|
|:d2AB cdeg|f2df eA~A2|d2AB cdeg|fdcd ed ~d2|
d2AB cdeg|f2df eA~A2|DEFG AB(3cBA|dAGE EDD2:|

%%%

